; generated by PrusaSlicer 2.8.1+win64 on 2024-11-16 at 22:02:39 UTC

; 

; external perimeters extrusion width = 0.45mm
; perimeters extrusion width = 0.45mm
; infill extrusion width = 0.45mm
; solid infill extrusion width = 0.45mm
; top infill extrusion width = 0.40mm
; support material extrusion width = 0.35mm
; first layer extrusion width = 0.42mm

M73 P0 R44
M73 Q0 S45
M201 X1000 Y1000 Z200 E5000 ; sets maximum accelerations, mm/sec^2
M203 X200 Y200 Z12 E120 ; sets maximum feedrates, mm / sec
M204 S1250 T1250 ; sets acceleration (S) and retract acceleration (R), mm/sec^2
M205 X8.00 Y8.00 Z0.40 E4.50 ; sets the jerk limits, mm/sec
M205 S0 T0 ; sets the minimum extruding and travel feed rate, mm/sec

; printing object PCBHOLDER.STL id:0 copy 0
; stop printing object PCBHOLDER.STL id:0 copy 0

;TYPE:Custom
M862.3 P "MK3S" ; printer model check
M862.1 P0.4 ; nozzle diameter check
M115 U3.9.2 ; tell printer latest fw version
G90 ; use absolute coordinates
M83 ; extruder relative mode
M104 S260 ; set extruder temp
M140 S105 ; set bed temp
M190 S105 ; wait for bed temp
M109 S260 ; wait for extruder temp
G28 W ; home all without mesh bed level
G80 ; mesh bed leveling
G1 Y-3.0 F1000.0 ; go outside print area
G92 E0.0
G1 X60.0 E9.0 F1000.0 ; intro line
G1 X100.0 E12.5 F1000.0 ; intro line
M73 Q0 S44
G92 E0.0
M221 S95

; Don't change E values below. Excessive value can damage the printer.
M907 E430 ; set extruder motor current
G21 ; set units to millimeters
G90 ; use absolute coordinates
M83 ; use relative distances for extrusion
M900 K0.04 ; Filament gcode LA 1.5
M900 K20 ; Filament gcode LA 1.0
M107
;LAYER_CHANGE
;Z:0.2
;HEIGHT:0.2
G1 E-.8 F2100
G1 Z.6 F10800
G1 X107.695 Y89.569
G1 Z.2
G1 E.8 F2100
M204 S1000
;TYPE:Skirt/Brim
;WIDTH:0.42
G1 F1200
G1 X109.401 Y87.846 E.07602
G1 X111.299 Y86.294 E.07687
G1 X113.227 Y85.03 E.07228
G1 X115.674 Y83.772 E.08627
G1 X117.944 Y82.914 E.07609
G1 X120.291 Y82.297 E.07609
G1 X122.69 Y81.93 E.07609
G1 X125.115 Y81.814 E.07612
G1 X127.31 Y81.93 E.06892
G1 X129.709 Y82.297 E.07609
G1 X132.056 Y82.914 E.07609
G1 X134.326 Y83.772 E.07609
G1 X136.494 Y84.863 E.0761
G1 X138.701 Y86.294 E.08247
G1 X140.431 Y87.695 E.0698
G1 X142.154 Y89.401 E.07602
G1 X143.825 Y91.465 E.08327
G1 X145.137 Y93.506 E.07608
G1 X146.228 Y95.674 E.0761
G1 X147.082 Y97.93 E.07563
G1 X147.679 Y100.164 E.0725
G1 X148.07 Y102.69 E.08014
G1 X148.186 Y105.115 E.07612
G1 X148.047 Y107.537 E.07607
G1 X147.655 Y109.933 E.07612
G1 X147.015 Y112.274 E.07609
G1 X146.134 Y114.535 E.07608
G1 X145.022 Y116.692 E.07609
G1 X143.706 Y118.701 E.0753
G1 X142.305 Y120.431 E.0698
G1 X140.599 Y122.154 E.07602
G1 X138.535 Y123.825 E.08327
G1 X136.494 Y125.137 E.07608
G1 X134.326 Y126.228 E.0761
G1 X132.056 Y127.086 E.07609
G1 X129.709 Y127.703 E.07609
G1 X127.31 Y128.07 E.07609
G1 X124.885 Y128.186 E.07612
G1 X122.47 Y128.048 E.07584
G1 X120.077 Y127.657 E.07603
G1 X117.945 Y127.086 E.0692
G1 X115.674 Y126.228 E.07612
G1 X113.506 Y125.137 E.0761
G1 X111.299 Y123.706 E.08247
G1 X109.569 Y122.305 E.0698
G1 X107.846 Y120.599 E.07602
G1 X106.294 Y118.701 E.07687
G1 X104.978 Y116.692 E.0753
G1 X103.866 Y114.535 E.07609
G1 X102.985 Y112.274 E.07608
G1 X102.345 Y109.933 E.07609
G1 X101.977 Y107.684 E.07145
G1 X101.814 Y104.885 E.08791
G1 X101.93 Y102.69 E.06892
G1 X102.297 Y100.291 E.07609
G1 X102.914 Y97.944 E.07609
G1 X103.772 Y95.674 E.07609
G1 X104.863 Y93.506 E.0761
G1 X106.294 Y91.299 E.08247
G1 X107.657 Y89.616 E.0679
;WIPE_START
G1 F8640
G1 X107.695 Y89.569 E-.01396
G1 X109.401 Y87.846 E-.55987
G1 X110.159 Y87.226 E-.22617
;WIPE_END
G1 Z.6 F10800
; printing object PCBHOLDER.STL id:0 copy 0
G1 X129.267 Y120.318
G1 Z.2
G1 E.8 F2100
;TYPE:Support material
G1 F1200
G1 X128.281 Y120.587 E.03205
G1 X126.414 Y120.866 E.05919
G1 X124.528 Y120.922 E.05916
G1 X122.648 Y120.754 E.05918
G1 X120.797 Y120.365 E.0593
G1 X120.733 Y120.344 E.00211
G1 X120.733 Y117.865 E.07773
G1 X129.267 Y117.865 E.26758
G1 X129.267 Y120.262 E.07516
G1 X129.267 Y120.262 F10800
G1 X128.771 Y120.278
G1 F1200
G1 X128.771 Y118.204 E.06503
G1 X128.352 Y118.204 E.01314
G1 X128.352 Y120.216 E.06308
G1 X128.211 Y120.255 E.00459
G1 X127.933 Y120.296 E.00881
G1 X127.933 Y118.204 E.06559
G1 X127.514 Y118.204 E.01314
G1 X127.514 Y120.359 E.06757
G1 X127.095 Y120.421 E.01328
G1 X127.095 Y118.204 E.06951
G1 X126.676 Y118.204 E.01314
G1 X126.676 Y120.484 E.07149
G1 X126.257 Y120.531 E.01322
G1 X126.257 Y118.204 E.07296
G1 X125.838 Y118.204 E.01314
G1 X125.838 Y120.544 E.07337
G1 X125.419 Y120.556 E.01314
G1 X125.419 Y118.204 E.07375
G1 X125 Y118.204 E.01314
G1 X125 Y120.568 E.07412
G1 X124.581 Y120.581 E.01314
G1 X124.581 Y118.204 E.07453
G1 X124.162 Y118.204 E.01314
G1 X124.162 Y120.549 E.07353
G1 X123.743 Y120.511 E.01319
G1 X123.743 Y118.204 E.07233
G1 X123.324 Y118.204 E.01314
G1 X123.324 Y120.474 E.07117
G1 X122.905 Y120.437 E.01319
G1 X122.905 Y118.204 E.07001
G1 X122.486 Y118.204 E.01314
G1 X122.486 Y120.374 E.06804
G1 X122.067 Y120.285 E.01343
G1 X122.067 Y118.204 E.06525
G1 X121.648 Y118.204 E.01314
G1 X121.648 Y120.197 E.06249
G1 X121.229 Y120.109 E.01342
G1 X121.229 Y118.035 E.06503
;WIPE_START
G1 F8640
G1 X121.229 Y120.109 E-.47889
G1 X121.648 Y120.197 E-.09886
G1 X121.648 Y119.235 E-.22225
;WIPE_END
G1 Z.6 F10800
G1 X112.135 Y109.267
G1 Z.2
G1 E.8 F2100
G1 F1200
G1 X109.677 Y109.267 E.07707
G1 X109.517 Y108.742 E.01721
G1 X109.183 Y106.884 E.05919
G1 X109.071 Y105 E.05918
G1 X109.183 Y103.116 E.05918
G1 X109.517 Y101.259 E.05916
G1 X109.677 Y100.733 E.01724
G1 X112.135 Y100.733 E.07707
G1 X112.135 Y109.21 E.26579
G1 X112.135 Y109.21 F10800
G1 X111.593 Y109.097
G1 F1200
G1 X111.593 Y101.073 E.25159
G1 X111.174 Y101.073 E.01314
G1 X111.174 Y108.927 E.24626
G1 X110.755 Y108.927 E.01314
G1 X110.755 Y101.073 E.24626
G1 X110.336 Y101.073 E.01314
G1 X110.336 Y108.927 E.24626
G1 X109.917 Y108.89 E.01319
G1 X109.917 Y101.11 E.24394
G1 X109.52 Y103.156 E.06535
G1 X109.498 Y107.678 E.14179
;WIPE_START
G1 F8640
G1 X109.515 Y104.214 E-.8
;WIPE_END
G1 Z.6 F10800
G1 X117.406 Y95.462
G1 Z.2
G1 E.8 F2100
G1 F1200
G1 X118.098 Y95.462 E.0217
G1 X118.098 Y92.827 E.08262
G1 X131.902 Y92.827 E.43281
G1 X131.902 Y95.462 E.08262
G1 X132.594 Y95.462 E.0217
G1 X132.594 Y91.029 E.13899
G1 X133.503 Y91.531 E.03256
G1 X135.037 Y92.631 E.05919
G1 X136.429 Y93.905 E.05917
G1 X137.661 Y95.334 E.05916
G1 X138.716 Y96.9 E.0592
G1 X138.976 Y97.406 E.01784
G1 X134.538 Y97.406 E.13915
G1 X134.538 Y98.098 E.0217
G1 X135.856 Y98.098 E.04132
G1 X135.856 Y111.902 E.43281
G1 X134.538 Y111.902 E.04132
G1 X134.538 Y112.594 E.0217
G1 X138.976 Y112.594 E.13915
M73 Q1 S44
G1 X138.716 Y113.1 E.01784
G1 X137.661 Y114.666 E.0592
G1 X136.429 Y116.095 E.05916
M73 P1 R44
G1 X135.037 Y117.369 E.05917
G1 X133.503 Y118.47 E.0592
G1 X132.594 Y118.971 E.03254
G1 X132.594 Y114.538 E.13899
G1 X131.902 Y114.538 E.0217
G1 X131.902 Y117.173 E.08262
G1 X118.098 Y117.173 E.43281
G1 X118.098 Y114.538 E.08262
G1 X117.406 Y114.538 E.0217
G1 X117.406 Y118.996 E.13978
G1 X115.714 Y117.942 E.0625
G1 X114.248 Y116.753 E.05918
G1 X112.934 Y115.399 E.05916
G1 X111.788 Y113.899 E.05919
G1 X111.018 Y112.594 E.04751
G1 X115.462 Y112.594 E.13934
G1 X115.462 Y111.902 E.0217
G1 X114.144 Y111.902 E.04132
G1 X114.144 Y98.098 E.43281
G1 X115.462 Y98.098 E.04132
G1 X115.462 Y97.406 E.0217
G1 X111.018 Y97.406 E.13934
G1 X111.788 Y96.101 E.04751
G1 X112.934 Y94.601 E.05919
G1 X114.248 Y93.247 E.05916
G1 X115.714 Y92.058 E.05918
G1 X117.406 Y91.003 E.06252
G1 X117.406 Y95.406 E.13805
G1 X117.406 Y95.406 F10800
G1 X123.995 Y102.678
G1 F1200
G1 X126.005 Y102.678 E.06302
G1 X126.005 Y103.995 E.04129
G1 X127.322 Y103.995 E.04129
G1 X127.322 Y106.005 E.06302
G1 X126.005 Y106.005 E.04129
G1 X126.005 Y107.322 E.04129
G1 X123.995 Y107.322 E.06302
G1 X123.995 Y106.005 E.04129
G1 X122.678 Y106.005 E.04129
G1 X122.678 Y103.995 E.06302
G1 X123.995 Y103.995 E.04129
G1 X123.995 Y102.734 E.03954
;WIPE_START
G1 F8640
G1 X123.995 Y103.995 E-.29117
G1 X122.678 Y103.995 E-.3041
G1 X122.678 Y104.881 E-.20473
;WIPE_END
G1 Z.6 F10800
G1 X138.407 Y113.254
G1 Z.2
G1 E.8 F2100
G1 F1200
G1 X138.407 Y112.933 E.01006
G1 X137.988 Y112.933 E.01314
G1 X137.988 Y113.573 E.02007
G1 X137.569 Y114.195 E.02351
G1 X137.569 Y112.933 E.03957
G1 X137.15 Y112.933 E.01314
G1 X137.15 Y114.739 E.05663
G1 X136.731 Y115.225 E.02012
G1 X136.731 Y112.933 E.07186
G1 X136.312 Y112.933 E.01314
G1 X136.312 Y115.711 E.0871
G1 X135.893 Y116.126 E.01849
G1 X135.893 Y112.933 E.10011
G1 X135.474 Y112.933 E.01314
G1 X135.474 Y116.509 E.11212
G1 X135.055 Y116.892 E.0178
G1 X135.055 Y112.933 E.12413
G1 X134.636 Y112.933 E.01314
G1 X134.636 Y117.239 E.13501
G1 X134.217 Y117.539 E.01616
G1 X134.217 Y92.461 E.7863
G1 X134.636 Y92.761 E.01616
G1 X134.636 Y97.067 E.13501
G1 X135.055 Y97.067 E.01314
G1 X135.055 Y93.108 E.12413
G1 X135.474 Y93.491 E.0178
G1 X135.474 Y97.067 E.11212
G1 X135.893 Y97.067 E.01314
G1 X135.893 Y93.874 E.10011
G1 X136.312 Y94.289 E.01849
G1 X136.312 Y97.067 E.0871
G1 X136.731 Y97.067 E.01314
G1 X136.731 Y94.775 E.07186
G1 X137.15 Y95.261 E.02012
G1 X137.15 Y97.067 E.05663
G1 X137.569 Y97.067 E.01314
G1 X137.569 Y95.805 E.03957
G1 X137.988 Y96.427 E.02351
G1 X137.988 Y97.067 E.02007
G1 X138.407 Y97.067 E.01314
G1 X138.407 Y96.746 E.01006
;WIPE_START
G1 F8640
G1 X138.407 Y97.067 E-.07412
G1 X137.988 Y97.067 E-.09675
G1 X137.988 Y96.427 E-.14778
G1 X137.569 Y95.805 E-.17317
G1 X137.569 Y97.067 E-.2914
G1 X137.496 Y97.067 E-.01678
;WIPE_END
G1 Z.6 F10800
G1 X135.474 Y111.733
G1 Z.2
G1 E.8 F2100
G1 F1200
G1 X135.474 Y98.437 E.41689
G1 X135.055 Y98.437 E.01314
G1 X135.055 Y111.563 E.41156
G1 X134.636 Y111.563 E.01314
G1 X134.636 Y98.267 E.41689
G1 X134.636 Y98.267 F10800
G1 X133.799 Y118.049
G1 F1200
G1 X133.799 Y92.16 E.81173
G1 X133.38 Y91.859 E.01618
G1 X133.38 Y118.141 E.82405
G1 X132.961 Y118.381 E.01514
G1 X132.961 Y91.619 E.8391
G1 X132.933 Y95.802 E.13116
G1 X132.542 Y95.802 E.01226
G1 X132.542 Y114.199 E.57683
G1 X132.123 Y114.199 E.01314
G1 X132.123 Y95.802 E.57683
G1 X131.704 Y95.802 E.01314
G1 X131.704 Y114.199 E.57683
G1 X131.563 Y114.199 E.00442
G1 X131.563 Y116.834 E.08262
G1 X131.285 Y116.834 E.00872
G1 X131.285 Y93.166 E.74209
G1 X130.866 Y93.166 E.01314
G1 X130.866 Y116.834 E.74209
G1 X130.447 Y116.834 E.01314
G1 X130.447 Y93.166 E.74209
G1 X130.028 Y93.166 E.01314
M73 P1 R43
G1 X130.028 Y116.834 E.74209
G1 X129.609 Y116.834 E.01314
G1 X129.609 Y93.166 E.74209
G1 X129.19 Y93.166 E.01314
M73 P2 R43
M73 Q2 S44
G1 X129.19 Y116.834 E.74209
G1 X128.771 Y116.834 E.01314
G1 X128.771 Y93.166 E.74209
G1 X128.352 Y93.166 E.01314
G1 X128.352 Y116.834 E.74209
G1 X127.933 Y116.834 E.01314
G1 X127.933 Y93.166 E.74209
G1 X127.514 Y93.166 E.01314
G1 X127.514 Y116.834 E.74209
G1 X127.095 Y116.834 E.01314
G1 X127.095 Y106.344 E.32891
G1 X126.676 Y106.344 E.01314
G1 X126.676 Y116.834 E.32891
G1 X126.257 Y116.834 E.01314
G1 X126.257 Y107.662 E.28758
G1 X125.838 Y107.662 E.01314
M73 Q2 S43
G1 X125.838 Y116.834 E.28758
G1 X125.419 Y116.834 E.01314
G1 X125.419 Y107.662 E.28758
G1 X125 Y107.662 E.01314
G1 X125 Y116.834 E.28758
G1 X124.581 Y116.834 E.01314
G1 X124.581 Y107.662 E.28758
G1 X124.162 Y107.662 E.01314
G1 X124.162 Y116.834 E.28758
G1 X123.743 Y116.834 E.01314
G1 X123.743 Y107.662 E.28758
G1 X123.656 Y107.662 E.00273
G1 X123.656 Y106.344 E.04132
G1 X123.324 Y106.344 E.01041
G1 X123.324 Y116.834 E.32891
G1 X122.905 Y116.834 E.01314
G1 X122.905 Y106.174 E.33424
;WIPE_START
G1 F8640
G1 X122.905 Y109.639 E-.8
;WIPE_END
G1 Z.6 F10800
G1 X127.095 Y103.826
G1 Z.2
G1 E.8 F2100
G1 F1200
G1 X127.095 Y93.166 E.33424
G1 X126.676 Y93.166 E.01314
G1 X126.676 Y103.656 E.32891
G1 X126.344 Y103.656 E.01041
G1 X126.344 Y102.338 E.04132
G1 X126.257 Y102.338 E.00273
G1 X126.257 Y93.166 E.28758
G1 X125.838 Y93.166 E.01314
G1 X125.838 Y102.338 E.28758
G1 X125.419 Y102.338 E.01314
G1 X125.419 Y93.166 E.28758
G1 X125 Y93.166 E.01314
G1 X125 Y102.338 E.28758
G1 X124.581 Y102.338 E.01314
G1 X124.581 Y93.166 E.28758
G1 X124.162 Y93.166 E.01314
G1 X124.162 Y102.338 E.28758
G1 X123.743 Y102.338 E.01314
G1 X123.743 Y93.166 E.28758
G1 X123.324 Y93.166 E.01314
G1 X123.324 Y103.656 E.32891
G1 X122.905 Y103.656 E.01314
G1 X122.905 Y93.166 E.32891
G1 X122.486 Y93.166 E.01314
G1 X122.486 Y116.834 E.74209
G1 X122.067 Y116.834 E.01314
G1 X122.067 Y93.166 E.74209
G1 X121.648 Y93.166 E.01314
G1 X121.648 Y116.834 E.74209
G1 X121.229 Y116.834 E.01314
G1 X121.229 Y93.166 E.74209
G1 X120.81 Y93.166 E.01314
G1 X120.81 Y116.834 E.74209
G1 X120.391 Y116.834 E.01314
G1 X120.391 Y93.166 E.74209
G1 X119.972 Y93.166 E.01314
G1 X119.972 Y116.834 E.74209
G1 X119.553 Y116.834 E.01314
G1 X119.553 Y93.166 E.74209
M73 Q3 S43
G1 X119.134 Y93.166 E.01314
M73 P3 R43
G1 X119.134 Y116.834 E.74209
G1 X118.715 Y116.834 E.01314
G1 X118.715 Y93.166 E.74209
G1 X118.437 Y93.166 E.00872
G1 X118.437 Y95.802 E.08265
G1 X118.296 Y95.802 E.00442
G1 X118.296 Y114.199 E.57683
G1 X117.877 Y114.199 E.01314
G1 X117.877 Y95.802 E.57683
G1 X117.458 Y95.802 E.01314
G1 X117.458 Y114.199 E.57683
G1 X117.067 Y114.199 E.01226
G1 X117.039 Y118.378 E.13103
G1 X117.039 Y91.622 E.83892
G1 X116.62 Y91.887 E.01554
G1 X116.62 Y118.113 E.8223
G1 X116.201 Y117.849 E.01553
G1 X116.201 Y92.151 E.80574
G1 X115.783 Y92.439 E.01592
G1 X115.783 Y117.561 E.78768
G1 X115.364 Y117.221 E.01692
G1 X115.364 Y112.933 E.13445
G1 X114.945 Y112.933 E.01314
G1 X114.945 Y116.881 E.12379
G1 X114.526 Y116.541 E.01692
G1 X114.526 Y112.933 E.11313
G1 X114.107 Y112.933 E.01314
G1 X114.107 Y116.12 E.09993
G1 X113.688 Y115.688 E.01887
G1 X113.688 Y112.933 E.08638
G1 X113.269 Y112.933 E.01314
G1 X113.269 Y115.257 E.07287
G1 X112.85 Y114.73 E.02111
G1 X112.85 Y112.933 E.05634
G1 X112.431 Y112.933 E.01314
G1 X112.431 Y114.181 E.03913
G1 X112.012 Y113.609 E.02223
G1 X112.012 Y112.763 E.02653
;WIPE_START
G1 F8640
G1 X112.012 Y113.609 E-.19534
G1 X112.431 Y114.181 E-.16372
G1 X112.431 Y112.933 E-.28817
G1 X112.85 Y112.933 E-.09675
G1 X112.85 Y113.176 E-.05602
;WIPE_END
G1 Z.6 F10800
G1 X115.364 Y111.733
G1 Z.2
G1 E.8 F2100
G1 F1200
G1 X115.364 Y98.437 E.41689
G1 X114.945 Y98.437 E.01314
G1 X114.945 Y111.563 E.41156
G1 X114.526 Y111.563 E.01314
G1 X114.526 Y98.267 E.41689
;WIPE_START
G1 F8640
G1 X114.526 Y101.732 E-.8
;WIPE_END
G1 Z.6 F10800
G1 X115.364 Y97.237
G1 Z.2
G1 E.8 F2100
G1 F1200
G1 X115.364 Y92.779 E.13978
G1 X114.945 Y93.119 E.01692
G1 X114.945 Y97.067 E.12379
G1 X114.526 Y97.067 E.01314
G1 X114.526 Y93.459 E.11313
G1 X114.107 Y93.88 E.01862
G1 X114.107 Y97.067 E.09993
G1 X113.688 Y97.067 E.01314
G1 X113.688 Y94.312 E.08638
G1 X113.269 Y94.743 E.01885
G1 X113.269 Y97.067 E.07287
G1 X112.85 Y97.067 E.01314
G1 X112.85 Y95.27 E.05634
G1 X112.431 Y95.819 E.02165
G1 X112.431 Y97.067 E.03913
G1 X112.012 Y97.067 E.01314
G1 X112.012 Y96.088 E.0307
;WIPE_START
G1 F8640
G1 X112.012 Y97.067 E-.22605
G1 X112.431 Y97.067 E-.09675
G1 X112.431 Y95.819 E-.28817
G1 X112.85 Y95.27 E-.15947
G1 X112.85 Y95.398 E-.02956
;WIPE_END
G1 Z.6 F10800
G1 X126.399 Y89.133
G1 Z.2
G1 E.8 F2100
G1 F1200
G1 X128.281 Y89.413 E.05966
G1 X129.267 Y89.682 E.03205
G1 X129.267 Y92.135 E.07691
G1 X120.733 Y92.135 E.26758
G1 X120.733 Y89.657 E.0777
G1 X122.648 Y89.246 E.06141
G1 X124.528 Y89.078 E.05918
G1 X126.343 Y89.132 E.05693
G1 X126.343 Y89.132 F10800
G1 X128.771 Y91.965
G1 F1200
G1 X128.771 Y89.898 E.06481
G1 X128.352 Y89.784 E.01362
G1 X128.352 Y91.796 E.06308
G1 X127.933 Y91.796 E.01314
G1 X127.933 Y89.704 E.06559
G1 X127.514 Y89.641 E.01329
G1 X127.514 Y91.796 E.06757
G1 X127.095 Y91.796 E.01314
G1 X127.095 Y89.579 E.06951
G1 X126.676 Y89.516 E.01329
G1 X126.676 Y91.796 E.07149
G1 X126.257 Y91.796 E.01314
G1 X126.257 Y89.469 E.07296
G1 X125.838 Y89.456 E.01314
G1 X125.838 Y91.796 E.07337
G1 X125.419 Y91.796 E.01314
G1 X125.419 Y89.444 E.07375
G1 X125 Y89.432 E.01314
G1 X125 Y91.796 E.07412
G1 X124.581 Y91.796 E.01314
G1 X124.538 Y89.418 E.07457
G1 X124.162 Y89.451 E.01183
G1 X124.162 Y91.796 E.07353
G1 X123.743 Y91.796 E.01314
G1 X123.743 Y89.489 E.07233
G1 X123.324 Y89.526 E.01319
G1 X123.324 Y91.796 E.07117
