; generated by PrusaSlicer 2.8.1+win64 on 2024-11-16 at 20:06:55 UTC

; 

; external perimeters extrusion width = 0.45mm
; perimeters extrusion width = 0.45mm
; infill extrusion width = 0.45mm
; solid infill extrusion width = 0.45mm
; top infill extrusion width = 0.40mm
; support material extrusion width = 0.35mm
; first layer extrusion width = 0.42mm

M73 P0 R60
M73 Q0 S60
M201 X1000 Y1000 Z200 E5000 ; sets maximum accelerations, mm/sec^2
M203 X200 Y200 Z12 E120 ; sets maximum feedrates, mm / sec
M204 S1250 T1250 ; sets acceleration (S) and retract acceleration (R), mm/sec^2
M205 X8.00 Y8.00 Z0.40 E4.50 ; sets the jerk limits, mm/sec
M205 S0 T0 ; sets the minimum extruding and travel feed rate, mm/sec

; printing object SHAFT.STL id:0 copy 0
; stop printing object SHAFT.STL id:0 copy 0

;TYPE:Custom
M862.3 P "MK3S" ; printer model check
M862.1 P0.4 ; nozzle diameter check
M115 U3.9.2 ; tell printer latest fw version
G90 ; use absolute coordinates
M83 ; extruder relative mode
M104 S260 ; set extruder temp
M140 S105 ; set bed temp
M190 S105 ; wait for bed temp
M109 S260 ; wait for extruder temp
G28 W ; home all without mesh bed level
G80 ; mesh bed leveling
G1 Y-3.0 F1000.0 ; go outside print area
G92 E0.0
G1 X60.0 E9.0 F1000.0 ; intro line
G1 X100.0 E12.5 F1000.0 ; intro line
G92 E0.0
M221 S95

; Don't change E values below. Excessive value can damage the printer.
M907 E430 ; set extruder motor current
G21 ; set units to millimeters
G90 ; use absolute coordinates
M83 ; use relative distances for extrusion
M900 K0.04 ; Filament gcode LA 1.5
M900 K20 ; Filament gcode LA 1.0
M107
;LAYER_CHANGE
;Z:0.2
;HEIGHT:0.2
G1 E-.8 F2100
G1 Z.6 F10800
G1 X112.785 Y94.558
G1 Z.2
G1 E.8 F2100
M204 S1000
;TYPE:Skirt/Brim
;WIDTH:0.42
G1 F1200
G1 X114.007 Y93.279 E.05546
G1 X115.364 Y92.142 E.05551
G1 X116.836 Y91.161 E.05546
G1 X118.408 Y90.348 E.05549
G1 X119.921 Y89.765 E.05084
G1 X122.049 Y89.209 E.06896
G1 X123.804 Y88.981 E.05549
G1 X125.574 Y88.948 E.05551
G1 X127.056 Y89.071 E.04663
G1 X128.796 Y89.395 E.05549
G1 X130.489 Y89.908 E.05547
G1 X132.116 Y90.605 E.0555
G1 X133.656 Y91.476 E.05547
G1 X134.972 Y92.424 E.05085
G1 X136.601 Y93.902 E.06897
G1 X137.578 Y95.023 E.04662
G1 X138.599 Y96.469 E.0555
G1 X139.455 Y98.017 E.05546
G1 X140.135 Y99.651 E.05549
G1 X140.694 Y101.626 E.06436
G1 X140.97 Y103.374 E.05549
G1 X141.051 Y105.141 E.05546
G1 X140.938 Y106.907 E.05548
G1 X140.694 Y108.374 E.04663
G1 X140.227 Y110.082 E.05552
G1 X139.576 Y111.727 E.05547
G1 X138.747 Y113.291 E.0555
G1 X137.752 Y114.754 E.05547
G1 X136.404 Y116.301 E.06434
G1 X135.31 Y117.308 E.04662
G1 X133.893 Y118.369 E.0555
G1 X132.368 Y119.267 E.05549
G1 X130.754 Y119.992 E.05548
G1 X129.07 Y120.536 E.05549
G1 X127.336 Y120.89 E.05549
G1 X125.574 Y121.052 E.05548
G1 X123.804 Y121.019 E.05551
G1 X122.049 Y120.791 E.05549
G1 X120.364 Y120.38 E.05438
G1 X118.408 Y119.652 E.06544
G1 X117.081 Y118.981 E.04662
G1 X115.591 Y118.026 E.05549
G1 X114.215 Y116.913 E.05549
G1 X112.97 Y115.655 E.05549
G1 X111.871 Y114.268 E.05549
G1 X110.949 Y112.799 E.05438
G1 X110.055 Y110.913 E.06544
G1 X109.573 Y109.506 E.04663
G1 X109.17 Y107.783 E.05548
G1 X108.96 Y106.026 E.05548
G1 X108.945 Y104.256 E.0555
G1 X109.124 Y102.496 E.05547
G1 X109.463 Y100.911 E.05082
G1 X110.162 Y98.825 E.06898
G1 X110.931 Y97.231 E.05549
G1 X111.71 Y95.964 E.04663
G1 X112.748 Y94.606 E.05359
G1 X112.748 Y94.606 F10800
G1 X113.048 Y94.835
G1 F1200
G1 X113.082 Y94.79 E.00177
G1 X114.278 Y93.542 E.0542
G1 X115.603 Y92.433 E.05418
G1 X117.043 Y91.476 E.05421
G1 X118.579 Y90.684 E.05419
G1 X120.053 Y90.118 E.04951
G1 X122.101 Y89.583 E.06637
G1 X123.815 Y89.358 E.0542
G1 X125.542 Y89.324 E.05416
G1 X127.264 Y89.48 E.05421
G1 X128.957 Y89.824 E.05417
G1 X130.377 Y90.268 E.04665
G1 X131.965 Y90.95 E.05419
G1 X133.468 Y91.803 E.05419
G1 X134.748 Y92.728 E.04952
G1 X136.317 Y94.149 E.06637
G1 X137.294 Y95.271 E.04665
G1 X138.289 Y96.683 E.05416
G1 X139.123 Y98.197 E.0542
G1 X139.786 Y99.793 E.05419
G1 X140.322 Y101.688 E.06175
G1 X140.593 Y103.394 E.05416
G1 X140.675 Y105.121 E.05421
G1 X140.593 Y106.606 E.04663
G1 X140.322 Y108.312 E.05416
G1 X139.864 Y109.979 E.0542
G1 X139.226 Y111.585 E.05418
G1 X138.415 Y113.111 E.05418
G1 X137.442 Y114.539 E.05418
G1 X136.149 Y116.024 E.06174
G1 X134.868 Y117.184 E.05419
G1 X133.468 Y118.197 E.05418
G1 X131.965 Y119.05 E.05419
G1 X130.377 Y119.732 E.05419
G1 X128.957 Y120.176 E.04665
G1 X127.264 Y120.52 E.05417
G1 X125.542 Y120.676 E.05421
G1 X123.815 Y120.642 E.05416
G1 X122.101 Y120.417 E.0542
G1 X120.456 Y120.015 E.0531
G1 X118.579 Y119.316 E.0628
G1 X117.252 Y118.644 E.04664
G1 X115.798 Y117.71 E.05418
G1 X114.455 Y116.622 E.05419
G1 X113.241 Y115.392 E.05419
G1 X112.169 Y114.037 E.05417
G1 X111.33 Y112.698 E.04954
G1 X110.412 Y110.791 E.06636
G1 X109.929 Y109.384 E.04664
G1 X109.538 Y107.701 E.05417
G1 X109.335 Y105.984 E.05421
G1 X109.322 Y104.256 E.05418
G1 X109.499 Y102.537 E.05418
G1 X109.831 Y100.993 E.04952
G1 X110.503 Y98.986 E.06636
G1 X111.138 Y97.641 E.04664
G1 X112.031 Y96.161 E.0542
G1 X113.011 Y94.883 E.0505
;WIPE_START
G1 F8640
G1 X113.048 Y94.835 E-.01399
G1 X113.082 Y94.79 E-.01302
G1 X114.278 Y93.542 E-.39913
G1 X115.52 Y92.503 E-.37386
;WIPE_END
G1 Z.6 F10800
; printing object SHAFT.STL id:0 copy 0
G1 X130.709 Y104.279
G1 Z.2
G1 E.8 F2100
;TYPE:Perimeter
;WIDTH:0.419999
G1 F1200
G1 X130.797 Y104.02 E.00858
G1 X131.071 Y103.64 E.01469
G1 X131.396 Y103.306 E.01461
G1 X131.869 Y103.033 E.01712
G1 X132.052 Y102.966 E.00611
G1 X132.566 Y102.873 E.01638
G1 X133.109 Y102.905 E.01705
G1 X133.51 Y103.033 E.0132
G1 X133.983 Y103.306 E.01712
G1 X134.371 Y103.715 E.01768
G1 X134.583 Y104.02 E.01165
G1 X134.77 Y104.534 E.01715
G1 X134.804 Y105 E.01465
G1 X134.77 Y105.466 E.01465
G1 X134.583 Y105.98 E.01715
G1 X134.371 Y106.285 E.01165
G1 X133.996 Y106.686 E.01721
G1 X133.51 Y106.967 E.0176
G1 X133.326 Y107.035 E.00615
G1 X132.788 Y107.129 E.01712
G1 X132.592 Y107.129 E.00615
G1 X132.054 Y107.035 E.01712
G1 X131.869 Y106.967 E.00618
G1 X131.396 Y106.694 E.01712
G1 X131.246 Y106.568 E.00614
G1 X130.895 Y106.15 E.01711
G1 X130.797 Y105.98 E.00615
G1 X130.61 Y105.466 E.01715
G1 X130.576 Y105.001 E.01462
G1 X130.58 Y104.656 E.01082
G1 X130.689 Y104.336 E.0106
G1 X130.689 Y104.336 F10800
G1 X131.06 Y104.407
;TYPE:External perimeter
G1 F1200
G1 X131.151 Y104.149 E.00858
G1 X131.535 Y103.674 E.01915
G1 X132.058 Y103.359 E.01914
G1 X132.633 Y103.244 E.01839
G1 X133.011 Y103.269 E.01188
G1 X133.322 Y103.359 E.01015
G1 X133.795 Y103.632 E.01712
G1 X134.196 Y104.093 E.01916
G1 X134.415 Y104.662 E.01912
G1 X134.427 Y105.273 E.01916
G1 X134.229 Y105.851 E.01916
G1 X133.845 Y106.326 E.01915
G1 X133.322 Y106.641 E.01914
G1 X132.722 Y106.758 E.01917
G1 X132.119 Y106.663 E.01914
G1 X131.585 Y106.368 E.01913
G1 X131.184 Y105.907 E.01916
G1 X130.964 Y105.338 E.01913
G1 X130.954 Y104.703 E.01991
G1 X131.04 Y104.463 E.00799
;WIPE_START
G1 F8640
G1 X131.06 Y104.407 E-.01373
G1 X131.151 Y104.149 E-.06317
G1 X131.535 Y103.674 E-.14104
G1 X132.058 Y103.359 E-.14097
G1 X132.633 Y103.244 E-.1354
G1 X133.011 Y103.269 E-.08747
G1 X133.322 Y103.359 E-.07476
G1 X133.795 Y103.632 E-.1261
G1 X133.844 Y103.689 E-.01736
;WIPE_END
G1 Z.6 F10800
G1 X126.358 Y98.931
G1 Z.2
G1 E.8 F2100
;TYPE:Perimeter
G1 F1200
G1 X126.283 Y98.994 E.00307
G1 X125.81 Y99.267 E.01712
G1 X125.626 Y99.335 E.00615
G1 X125.088 Y99.429 E.01712
G1 X124.892 Y99.429 E.00615
G1 X124.354 Y99.335 E.01712
G1 X124.169 Y99.267 E.00618
G1 X123.696 Y98.994 E.01712
G1 X123.546 Y98.868 E.00614
G1 X123.195 Y98.45 E.01711
G1 X123.097 Y98.28 E.00615
G1 X122.91 Y97.766 E.01715
G1 X122.876 Y97.5 E.00841
G1 X122.883 Y96.935 E.01772
G1 X123.082 Y96.36 E.01908
G1 X123.299 Y96.026 E.01249
G1 X123.696 Y95.606 E.01812
G1 X124.169 Y95.333 E.01712
G1 X124.352 Y95.266 E.00611
G1 X124.866 Y95.173 E.01638
G1 X125.406 Y95.204 E.01696
G1 X125.81 Y95.333 E.0133
G1 X126.283 Y95.606 E.01712
G1 X126.434 Y95.732 E.00617
G1 X126.785 Y96.15 E.01711
G1 X126.883 Y96.32 E.00615
G1 X127.07 Y96.834 E.01715
G1 X127.104 Y97.027 E.00614
G1 X127.104 Y97.573 E.01712
G1 X127.07 Y97.766 E.00614
G1 X126.883 Y98.28 E.01715
G1 X126.785 Y98.45 E.00615
G1 X126.434 Y98.868 E.01711
G1 X126.404 Y98.893 E.00122
G1 X126.404 Y98.893 F10800
G1 X126.116 Y98.643
;TYPE:External perimeter
G1 F1200
G1 X125.622 Y98.941 E.01809
G1 X125.023 Y99.058 E.01914
G1 X124.358 Y98.941 E.02117
G1 X123.885 Y98.668 E.01712
G1 X123.484 Y98.207 E.01916
G1 X123.264 Y97.638 E.01913
G1 X123.253 Y97.027 E.01916
G1 X123.436 Y96.489 E.01782
G1 X123.835 Y95.974 E.02043
G1 X124.358 Y95.659 E.01914
G1 X124.933 Y95.544 E.01839
G1 X125.311 Y95.569 E.01188
G1 X125.622 Y95.659 E.01015
G1 X126.095 Y95.932 E.01712
G1 X126.496 Y96.393 E.01916
G1 X126.715 Y96.962 E.01912
G1 X126.727 Y97.573 E.01916
G1 X126.529 Y98.151 E.01916
G1 X126.161 Y98.605 E.01832
;WIPE_START
G1 F8640
G1 X126.116 Y98.643 E-.0136
G1 X125.622 Y98.941 E-.13321
G1 X125.023 Y99.058 E-.14092
G1 X124.358 Y98.941 E-.15591
G1 X123.885 Y98.668 E-.1261
G1 X123.484 Y98.207 E-.14108
G1 X123.345 Y97.846 E-.08918
;WIPE_END
G1 Z.6 F10800
G1 X118.909 Y103.641
G1 Z.2
M73 P0 R59
G1 E.8 F2100
;TYPE:Perimeter
G1 F1200
G1 X119.183 Y104.02 E.01466
G1 X119.37 Y104.534 E.01715
G1 X119.404 Y105.001 E.01468
G1 X119.37 Y105.466 E.01462
G1 X119.183 Y105.98 E.01715
G1 X119.085 Y106.15 E.00615
G1 X118.734 Y106.568 E.01711
G1 X118.583 Y106.694 E.00617
G1 X118.11 Y106.967 E.01712
G1 X117.926 Y107.035 E.00615
G1 X117.388 Y107.129 E.01712
G1 X117.192 Y107.129 E.00615
G1 X116.654 Y107.035 E.01712
G1 X116.456 Y106.96 E.00664
G1 X115.996 Y106.694 E.01666
G1 X115.846 Y106.568 E.00614
G1 X115.495 Y106.15 E.01711
G1 X115.397 Y105.98 E.00615
G1 X115.21 Y105.466 E.01715
G1 X115.176 Y105.273 E.00614
G1 X115.176 Y104.727 E.01712
G1 X115.21 Y104.534 E.00614
G1 X115.397 Y104.02 E.01715
G1 X115.495 Y103.85 E.00615
G1 X115.846 Y103.432 E.01711
G1 X115.996 Y103.306 E.00614
G1 X116.469 Y103.033 E.01712
G1 X117.166 Y102.873 E.02242
G1 X117.709 Y102.905 E.01705
G1 X118.11 Y103.033 E.0132
G1 X118.583 Y103.306 E.01712
G1 X118.868 Y103.598 E.01279
G1 X118.868 Y103.598 F10800
G1 X118.616 Y103.887
;TYPE:External perimeter
G1 F1200
G1 X118.796 Y104.093 E.00858
G1 X119.015 Y104.662 E.01912
G1 X119.027 Y105.273 E.01916
G1 X118.829 Y105.851 E.01916
G1 X118.395 Y106.368 E.02116
G1 X117.922 Y106.641 E.01712
G1 X117.322 Y106.758 E.01917
G1 X116.767 Y106.672 E.01761
G1 X116.185 Y106.368 E.02059
G1 X115.784 Y105.907 E.01916
G1 X115.564 Y105.338 E.01913
G1 X115.553 Y104.727 E.01916
G1 X115.751 Y104.149 E.01916
G1 X116.135 Y103.674 E.01915
G1 X116.647 Y103.365 E.01875
G1 X117.233 Y103.244 E.01876
G1 X117.611 Y103.269 E.01188
G1 X117.922 Y103.359 E.01015
G1 X118.395 Y103.632 E.01712
G1 X118.577 Y103.842 E.00871
;WIPE_START
G1 F8640
G1 X118.616 Y103.887 E-.01375
G1 X118.796 Y104.093 E-.06317
G1 X119.015 Y104.662 E-.14078
G1 X119.027 Y105.273 E-.14111
G1 X118.829 Y105.851 E-.14108
G1 X118.395 Y106.368 E-.15586
G1 X117.922 Y106.641 E-.1261
G1 X117.845 Y106.656 E-.01815
;WIPE_END
G1 Z.6 F10800
G1 X123.627 Y111.077
G1 Z.2
G1 E.8 F2100
;TYPE:Perimeter
G1 F1200
G1 X123.696 Y111.006 E.0031
G1 X124.169 Y110.733 E.01712
G1 X124.352 Y110.666 E.00611
G1 X124.866 Y110.573 E.01638
G1 X125.374 Y110.597 E.01595
G1 X125.969 Y110.807 E.01978
G1 X126.14 Y110.905 E.00618
G1 X126.558 Y111.256 E.01711
G1 X126.684 Y111.407 E.00617
G1 X126.957 Y111.879 E.0171
G1 X127.024 Y112.064 E.00617
G1 X127.119 Y112.603 E.01716
G1 X127.119 Y112.798 E.00611
G1 X127.024 Y113.336 E.01713
G1 X126.805 Y113.784 E.01564
G1 X126.558 Y114.144 E.01369
G1 X126.139 Y114.495 E.01714
G1 X125.969 Y114.593 E.00615
G1 X125.456 Y114.78 E.01712
G1 X125.263 Y114.814 E.00614
G1 X124.717 Y114.814 E.01712
G1 X124.523 Y114.78 E.00618
G1 X124.01 Y114.593 E.01712
G1 X123.84 Y114.495 E.00615
G1 X123.422 Y114.144 E.01711
G1 X123.165 Y113.811 E.01319
G1 X122.91 Y113.166 E.02175
G1 X122.876 Y112.973 E.00614
G1 X122.876 Y112.427 E.01712
G1 X122.91 Y112.234 E.00614
G1 X123.097 Y111.72 E.01715
G1 X123.371 Y111.34 E.01469
G1 X123.585 Y111.12 E.00962
G1 X123.585 Y111.12 F10800
G1 X123.864 Y111.357
;TYPE:External perimeter
G1 F1200
G1 X124.358 Y111.059 E.01809
G1 X124.933 Y110.944 E.01839
G1 X125.327 Y110.974 E.01239
G1 X125.84 Y111.161 E.01712
G1 X126.315 Y111.545 E.01915
G1 X126.631 Y112.068 E.01916
G1 X126.748 Y112.667 E.01914
G1 X126.653 Y113.27 E.01914
G1 X126.315 Y113.855 E.02118
G1 X125.897 Y114.206 E.01711
G1 X125.327 Y114.426 E.01916
G1 X124.717 Y114.437 E.01913
G1 X124.139 Y114.239 E.01916
G1 X123.664 Y113.855 E.01915
G1 X123.436 Y113.511 E.01294
G1 X123.264 Y113.038 E.01578
G1 X123.253 Y112.5 E.01687
G1 X123.264 Y112.362 E.00434
G1 X123.451 Y111.849 E.01712
G1 X123.818 Y111.395 E.0183
;WIPE_START
G1 F8640
G1 X123.864 Y111.357 E-.01378
G1 X124.358 Y111.059 E-.13321
G1 X124.933 Y110.944 E-.1354
G1 X125.327 Y110.974 E-.09124
G1 X125.84 Y111.161 E-.12608
G1 X126.315 Y111.545 E-.14104
G1 X126.631 Y112.068 E-.14109
G1 X126.646 Y112.145 E-.01816
;WIPE_END
G1 Z.6 F10800
G1 X122.967 Y117.533
G1 Z.2
G1 E.8 F2100
;TYPE:Perimeter
G1 F1200
G1 X122.553 Y117.476 E.0131
G1 X121.195 Y117.132 E.04392
G1 X119.884 Y116.641 E.04389
G1 X118.634 Y116.009 E.04392
G1 X117.461 Y115.243 E.04393
G1 X116.38 Y114.352 E.04392
G1 X115.404 Y113.348 E.0439
G1 X114.544 Y112.243 E.0439
G1 X113.81 Y111.05 E.04392
G1 X113.212 Y109.784 E.0439
G1 X112.758 Y108.459 E.04392
G1 X112.451 Y107.092 E.04393
G1 X112.297 Y105.7 E.04391
G1 X112.297 Y104.3 E.0439
G1 X112.451 Y102.908 E.04391
G1 X112.753 Y101.564 E.04319
G1 X113.213 Y100.216 E.04466
G1 X113.81 Y98.95 E.04389
G1 X114.544 Y97.757 E.04392
G1 X115.404 Y96.652 E.0439
G1 X116.38 Y95.648 E.0439
G1 X117.461 Y94.757 E.04392
G1 X118.634 Y93.991 E.04393
G1 X119.884 Y93.359 E.04392
G1 X121.195 Y92.868 E.04389
G1 X122.553 Y92.524 E.04392
G1 X123.94 Y92.332 E.0439
G1 X125.34 Y92.293 E.04391
G1 X126.736 Y92.409 E.04392
G1 X128.11 Y92.677 E.04389
G1 X129.447 Y93.095 E.04392
G1 X130.73 Y93.658 E.04393
G1 X131.942 Y94.358 E.04388
G1 X133.071 Y95.188 E.04394
G1 X134.101 Y96.136 E.04389
G1 X135.021 Y97.192 E.04391
G1 X135.819 Y98.343 E.04391
G1 X136.486 Y99.575 E.04393
G1 X137.013 Y100.873 E.04392
G1 X137.394 Y102.22 E.04389
G1 X137.624 Y103.602 E.04393
G1 X137.697 Y105.08 E.0464
G1 X137.624 Y106.398 E.04139
G1 X137.394 Y107.78 E.04393
G1 X137.019 Y109.105 E.04318
G1 X136.485 Y110.426 E.04468
G1 X135.819 Y111.657 E.04388
G1 X135.021 Y112.808 E.04391
G1 X134.101 Y113.864 E.04391
G1 X133.071 Y114.812 E.04389
G1 X131.942 Y115.642 E.04394
G1 X130.73 Y116.342 E.04388
G1 X129.447 Y116.905 E.04393
G1 X128.11 Y117.323 E.04392
G1 X126.736 Y117.591 E.04389
G1 X125.34 Y117.707 E.04392
G1 X123.94 Y117.668 E.04391
G1 X123.026 Y117.542 E.02893
G1 X123.026 Y117.542 F10800
G1 X122.975 Y117.915
;TYPE:External perimeter
G1 F1200
G1 X122.48 Y117.847 E.01567
G1 X121.082 Y117.493 E.04522
G1 X119.732 Y116.987 E.0452
G1 X118.445 Y116.336 E.04522
G1 X117.238 Y115.547 E.04521
G1 X116.125 Y114.63 E.04522
G1 X115.119 Y113.596 E.04523
G1 X114.233 Y112.458 E.04522
G1 X113.478 Y111.23 E.0452
G1 X112.863 Y109.926 E.0452
G1 X112.394 Y108.562 E.04522
G1 X112.079 Y107.154 E.04524
G1 X111.92 Y105.721 E.04521
G1 X111.92 Y104.279 E.04521
G1 X112.079 Y102.846 E.04521
G1 X112.389 Y101.462 E.04447
G1 X112.863 Y100.074 E.04599
G1 X113.478 Y98.77 E.0452
G1 X114.233 Y97.542 E.0452
G1 X115.119 Y96.404 E.04522
G1 X116.125 Y95.37 E.04523
G1 X117.238 Y94.453 E.04522
G1 X118.445 Y93.664 E.04521
G1 X119.732 Y93.013 E.04522
G1 X121.082 Y92.507 E.0452
G1 X122.48 Y92.153 E.04522
G1 X123.909 Y91.955 E.04523
G1 X125.35 Y91.916 E.0452
G1 X126.788 Y92.035 E.04524
G1 X128.203 Y92.311 E.0452
G1 X129.579 Y92.742 E.04521
G1 X130.9 Y93.321 E.04522
G1 X132.149 Y94.042 E.04522
G1 X133.311 Y94.896 E.04521
G1 X134.372 Y95.873 E.04522
G1 X135.319 Y96.96 E.0452
G1 X136.141 Y98.145 E.04522
G1 X136.827 Y99.414 E.04523
G1 X137.37 Y100.75 E.04522
G1 X137.762 Y102.138 E.04522
G1 X138 Y103.56 E.04521
G1 X138.074 Y105.101 E.04837
G1 X138 Y106.44 E.04205
G1 X137.762 Y107.862 E.04521
G1 X137.376 Y109.227 E.04448
